icons/solid/inbox-in.svg

<svg width="24" height="24" viewBox="0 0 24 24" fill="none" xmlns="http://www.w3.org/2000/svg">
<path fill-rule="evenodd" clip-rule="evenodd" d="M9.70711 7.29289C9.31658 6.90237 8.68342 6.90237 8.29289 7.29289C7.90237 7.68342 7.90237 8.31658 8.29289 8.70711L11.2929 11.7071C11.4804 11.8946 11.7348 12 12 12C12.2652 12 12.5196 11.8946 12.7071 11.7071L15.7071 8.70711C16.0976 8.31658 16.0976 7.68342 15.7071 7.29289C15.3166 6.90237 14.6834 6.90237 14.2929 7.29289L13 8.58579V3H18C19.6569 3 21 4.34315 21 6V13H16C14.8954 13 14 13.8954 14 15L10 15C10 13.8954 9.10457 13 8 13H3V6C3 4.34315 4.34315 3 6 3H11L11 8.58579L9.70711 7.29289ZM3 18C3 19.6569 4.34315 21 6 21H18C19.6569 21 21 19.6569 21 18V15H16C16 16.1046 15.1046 17 14 17L10 17C8.89543 17 8 16.1046 8 15H3V18Z" fill="currentColor"/>
</svg>

<svg width="24" height="24" fill="none" xmlns="http://www.w3.org/2000/svg"><path fill-rule="evenodd" clip-rule="evenodd" d="M9.707 7.293a1 1 0 00-1.414 1.414l3 3a1 1 0 001.414 0l3-3a1 1 0 00-1.414-1.414L13 8.586V3h5a3 3 0 013 3v7h-5a2 2 0 00-2 2h-4a2 2 0 00-2-2H3V6a3 3 0 013-3h5v5.586L9.707 7.293zM3 18a3 3 0 003 3h12a3 3 0 003-3v-3h-5a2 2 0 01-2 2h-4a2 2 0 01-2-2H3v3z" fill="currentColor"/></svg>
